flaticon/design/bucket-1.svg

<svg xmlns="http://www.w3.org/2000/svg" width="32" height="32" viewBox="0 0 24 24">
    <path d="M2.480469 15.714844C2.324219 15.558594 2.074219 15.558594 1.917969 15.714844L.917969 16.714844C.210938 17.425781.210938 18.574219.917969 19.28125 1.257812 19.625 1.714844 19.8125 2.199219 19.8125 2.683594 19.8125 3.140625 19.625 3.480469 19.28125 4.1875 18.574219 4.1875 17.421875 3.480469 16.714844zM2.917969 18.714844C2.53125 19.097656 1.863281 19.097656 1.480469 18.714844 1.085938 18.320312 1.085938 17.675781 1.480469 17.28125L2.199219 16.566406 2.917969 17.28125C3.3125 17.675781 3.3125 18.320312 2.917969 18.714844zM23.3125 12.382812L13.410156 2.484375C13.027344 2.101562 12.367188 2.125 11.554688 2.425781 11.289062 1.046875 10.070312 0 8.613281 0 6.957031 0 5.613281 1.34375 5.613281 3L5.613281 6.902344C3.015625 9.617188 1.042969 12.742188 2.097656 13.796875L4.957031 16.65625 4.929688 16.683594C4.933594 16.683594 4.933594 16.6875 4.9375 16.6875L10.128906 21.828125 11.996094 23.695312C12.199219 23.898438 12.472656 24 12.816406 24 13.375 24 14.125 23.726562 15.054688 23.1875 16.367188 22.421875 17.894531 21.195312 19.351562 19.738281 20.808594 18.277344 22.035156 16.753906 22.800781 15.441406 23.671875 13.945312 23.84375 12.917969 23.3125 12.382812zM19.214844 14.285156L14.96875 10.035156C14.765625 9.835938 14.757812 9.515625 14.949219 9.289062 15.644531 8.476562 16.261719 7.527344 16.472656 6.71875L20.878906 11.082031C21.121094 11.324219 20.773438 12.605469 19.214844 14.285156zM12.59375 2.976562C12.710938 2.976562 12.796875 3 12.847656 3.050781 13.089844 3.296875 12.75 4.425781 11.613281 6.0625L11.613281 3.253906C12.039062 3.066406 12.375 2.976562 12.59375 2.976562zM8.613281.800781C9.746094.800781 10.679688 1.660156 10.800781 2.761719 9.46875 3.445312 7.878906 4.683594 6.414062 6.097656L6.414062 3C6.414062 1.789062 7.402344.800781 8.613281.800781zM6.625 7.011719C8.265625 5.371094 9.71875 4.289062 10.8125 3.660156L10.8125 7.132812C10.28125 7.796875 9.648438 8.511719 8.886719 9.273438 5.59375 12.566406 3.050781 13.617188 2.664062 13.230469 2.28125 12.847656 3.332031 10.304688 6.625 7.011719zM10.695312 21.261719L6.332031 16.902344C6.667969 16.816406 7.046875 16.667969 7.472656 16.453125 7.632812 16.371094 7.824219 16.398438 7.949219 16.523438L12.15625 20.714844C11.304688 21.195312 10.8125 21.382812 10.695312 21.261719zM18.785156 19.171875C15.492188 22.464844 12.949219 23.515625 12.5625 23.132812L11.40625 21.972656C11.789062 21.839844 12.1875 21.617188 12.546875 21.414062 12.769531 21.289062 12.914062 21.070312 12.949219 20.820312 12.984375 20.570312 12.902344 20.320312 12.722656 20.144531L8.511719 15.957031C8.144531 15.589844 7.578125 15.5 7.109375 15.742188 6.253906 16.175781 5.792969 16.214844 5.59375 16.160156L3.460938 14.03125C3.9375 13.917969 4.5 13.667969 5.15625 13.285156 6.046875 12.765625 7.039062 12.03125 8.039062 11.15625 8.085938 11.117188 8.136719 11.074219 8.183594 11.03125 8.285156 10.941406 8.386719 10.851562 8.488281 10.757812 8.570312 10.683594 8.652344 10.605469 8.738281 10.527344 8.8125 10.457031 8.886719 10.386719 8.960938 10.316406 9.125 10.160156 9.289062 10 9.453125 9.839844 9.628906 9.664062 9.800781 9.484375 9.972656 9.304688 10.265625 8.996094 10.542969 8.6875 10.8125 8.378906L10.8125 12 11.613281 12 11.613281 7.410156C12.117188 6.761719 12.558594 6.128906 12.898438 5.542969 13.28125 4.886719 13.53125 4.320312 13.644531 3.847656L15.703125 5.910156 15.675781 5.933594C15.875 6.132812 15.679688 7.199219 14.339844 8.769531 13.875 9.316406 13.902344 10.101562 14.402344 10.601562L18.648438 14.851562C18.800781 15 19.007812 15.085938 19.21875 15.085938 19.226562 15.085938 19.230469 15.085938 19.234375 15.085938 19.453125 15.082031 19.65625 14.992188 19.804688 14.832031 20.6875 13.875 21.425781 12.769531 21.664062 11.867188L22.742188 12.949219C23.128906 13.332031 22.078125 15.878906 18.785156 19.171875zM18.785156 19.171875"/>
    <path d="M 12.0625 11.152344 C 12.289062 11.378906 12.414062 11.679688 12.414062 12 C 12.414062 12.320312 12.289062 12.621094 12.0625 12.847656 C 11.609375 13.300781 10.816406 13.300781 10.363281 12.847656 C 10.136719 12.621094 10.011719 12.320312 10.011719 12 C 10.011719 11.679688 10.136719 11.378906 10.363281 11.152344 L 9.800781 10.585938 C 9.421875 10.960938 9.214844 11.464844 9.214844 12 C 9.214844 12.535156 9.421875 13.035156 9.800781 13.414062 C 10.175781 13.789062 10.679688 14 11.214844 14 C 11.746094 14 12.25 13.789062 12.628906 13.414062 C 13.003906 13.035156 13.214844 12.535156 13.214844 12 C 13.214844 11.464844 13.003906 10.960938 12.628906 10.585938 Z M 12.0625 11.152344"/>
</svg>

<svg xmlns="http://www.w3.org/2000/svg" width="32" height="32" viewBox="0 0 24 24">
    <path d="M2.48 15.715a.396.396 0 0 0-.562 0l-1 1a1.818 1.818 0 0 0 0 2.566c.34.344.797.532 1.281.532a1.79 1.79 0 0 0 1.281-.532 1.818 1.818 0 0 0 0-2.566zm.438 3a1.043 1.043 0 0 1-1.438 0 1.016 1.016 0 0 1 0-1.434l.72-.715.718.715c.394.395.394 1.04 0 1.434zm0 0M23.313 12.383L13.41 2.484c-.383-.382-1.043-.359-1.855-.058A3.001 3.001 0 0 0 8.613 0a3 3 0 0 0-3 3v3.902c-2.597 2.715-4.57 5.84-3.515 6.895l2.859 2.86-.027.027c.004 0 .004.003.008.003l5.19 5.141 1.868 1.867c.203.203.477.305.82.305.559 0 1.309-.273 2.239-.813 1.312-.765 2.84-1.992 4.297-3.449 1.457-1.46 2.683-2.984 3.449-4.297.87-1.496 1.043-2.523.512-3.058zm-4.098 1.902l-4.246-4.25a.544.544 0 0 1-.02-.746c.696-.812 1.313-1.762 1.524-2.57l4.406 4.363c.242.242-.106 1.523-1.664 3.203zM12.594 2.977c.117 0 .203.023.254.074.242.246-.098 1.375-1.235 3.011V3.255c.426-.188.762-.277.98-.277zM8.614.8c1.132 0 2.066.86 2.187 1.96-1.332.684-2.922 1.923-4.387 3.337V3c0-1.21.988-2.2 2.2-2.2zM6.624 7.01c1.64-1.64 3.094-2.722 4.188-3.35v3.472a25.995 25.995 0 0 1-1.926 2.14c-3.293 3.293-5.836 4.344-6.223 3.957-.383-.382.668-2.925 3.961-6.218zm4.07 14.25l-4.363-4.359a5.736 5.736 0 0 0 1.14-.449.408.408 0 0 1 .477.07l4.207 4.192c-.851.48-1.344.668-1.46.547zm8.09-2.09c-3.293 3.294-5.836 4.345-6.223 3.962l-1.156-1.16c.383-.133.781-.356 1.14-.559a.803.803 0 0 0 .403-.594.788.788 0 0 0-.226-.675l-4.211-4.188a1.202 1.202 0 0 0-1.403-.215c-.855.434-1.316.473-1.515.418L3.46 14.031c.477-.113 1.039-.363 1.695-.746.89-.52 1.883-1.254 2.883-2.129.047-.039.098-.082.145-.125.101-.09.203-.18.304-.273.082-.074.164-.153.25-.23l.223-.212c.164-.156.328-.316.492-.476.176-.176.348-.356.52-.535.293-.309.57-.617.84-.926V12h.8V7.41c.504-.648.946-1.281 1.285-1.867.383-.656.633-1.223.747-1.695l2.058 2.062-.027.024c.199.199.004 1.265-1.336 2.836a1.34 1.34 0 0 0 .062 1.832l4.246 4.25c.153.148.36.234.57.234h.016a.79.79 0 0 0 .57-.254c.884-.957 1.622-2.062 1.86-2.965l1.078 1.082c.387.383-.664 2.93-3.957 6.223zm0 0"/>
    <path d="M12.063 11.152c.226.227.351.528.351.848 0 .32-.125.621-.351.848-.454.453-1.247.453-1.7 0a1.19 1.19 0 0 1-.351-.848c0-.32.125-.621.351-.848l-.562-.566A1.976 1.976 0 0 0 9.215 12c0 .535.207 1.035.586 1.414.375.375.879.586 1.414.586a1.999 1.999 0 0 0 1.414-3.414zm0 0"/>
</svg>
